X: 5
T: Garrett Barry's
R: jig
M: 6/8
L: 1/8
K: Ddor
|: DEF GE/F/G | AGE c2 A | dcA d2 e | fed cAG |FEF GFG | AGA cde | dcA GEA | DED D3 :||: dcA d2 e | fed efe | dcA c2 d | efe ecA |dcA d2 e | fed efe | dcA GEA | DED D3 :|


Tune 544	Setting 21269

